X:353
T:Vamp, The
M:6/8
C:© Paul Gitlitz 2014
K:A
"A6"=c^ce f2a|"G7"=g2 f e2 c|"D7"A2B =c2B| A2F- F3|!
"F6"=F2A =c2d|"Dm7"e2=f =g2f|"B7"e2=c- c3|"E7" B6|!
"A6"=c^ce f2a|"G7"=g2f e2 c|"D7"A2B =c2B| A2F- F3|!
"Dm7"A2=F A2 F| "E7"=c2B- B3|"A6"A6-|1A2E A2B:|2A2a g2=g|!
|"D7"f2d f2a-|a2a g2f|"A6"e2f e2c-|c3 ecA|!
"E7"G2B e2g-|g2e f2e|"A6"A2B  =c2^c-|^c2a g2=g|!
"D7"f2d f2d|f2a g2f|"A6"e2f e2c-|c2e c2A|!
"E7"G2B e2B|f2B e2B|[^c2e2] [=ce] [B2e2] ([Ae]|"A6"[A6e6])|]
